X: 8003
T: Connaughtman's Rambles, The
R: jig
M: 6/8
K: Edorian
|:B>ee B>dd|BeB dBA|B>ee B>dd|BAB d2A|
B>ee B>dd|Bec dBA|d>BA GAB|AGE E2D||
B,2D GDD|EDE GDD|B,2D GAB|AGE E2D|
B,2D GDD|EDE GDD|B,2D GAB|AGE E3:|

